X:1
T:Title
%%score { ( 1 2 ) | ( 3 4 ) }
L:1/8
Q:1/4=108
M:4/4
K:D
V:1 treble nm="Church Organ"
V:2 treble 
V:3 bass 
V:4 bass 
V:1
 z4 z2 F2 | d6 z2 | [DFB]2 [DFA]>[CEF] [B,DG]2 [A,CA][A,CA] | [A,DF]6 [^A,CF]>[A,CF] | %4
 [B,DF]2 [B,FB]>[B,EB] [Dd]2 [Fd][Fd] | c6 z2 | A2 [Ac]>[Ad] [Ae]2 [^Ge]2 | A6 A>B | %8
 =c2 [EGc]2 [DGc]2 [DGB]2 | [=CE=c]6 G>A | ^A2 [D=FA]>[DGB] [=CFB]2 [CF=A]2 | [^A,D^A]6 A,>=A, | %12
 [Dd]4 z4 | A4 A4[K:bass] | [D,F,D]8 |] %15
V:2
 [F,D]2 [B,DF]>[B,DF] [CEA]2 [CA]->[CEA] | z4 G,2 AF | x8 | x8 | x8 | F4 =F2 ^G>G | x8 | x8 | x8 | %9
 x8 | x8 | x8 | [G,^A,E^A]2 [=A,F=A]2 [F,F]2 [DG]2 | D2 C2 z2[K:bass] [E,G,CE]2 | x8 |] %15
V:3
 D,2 B,,>B,, A,,2 A,>G, | D6 z2 | B,,2 D,>D, E,2 A,,A,, | D,6 F,>F, | %4
 B,,2 D,>C, [B,,B,]2 [B,,A,][B,,A,] | [C,^G,]6 [=F,C]>[E,C] | %6
 [F,CF]2 [F,A,]>[F,B,] [E,C]2 [E,B,]2 | [A,C]6 A,>B, | =C2 E,>=F, G,2 G,2 | =C,6 G,>A, | %10
 ^A,2 D,>^D, =F,2 F,2 | ^A,,6 A,,>=A,, | G,,2 [F,,F,]2 z2 [B,,D,G,]2 | z4 A,4 | D,,8 |] %15
V:4
 x8 | [F,A,]4 E,2 [D,F,D][D,A,D] | x8 | x8 | x8 | x8 | x8 | x8 | x8 | x8 | x8 | x8 | x8 | %13
 [A,,E,A,]4 z2 A,,2 | x8 |] %15

